src/assets/Imgs/copy.svg

<svg fill="none" height="16" viewBox="0 0 16 16" width="16" xmlns="http://www.w3.org/2000/svg"><g stroke="#b0b0b0" stroke-linecap="round" stroke-linejoin="round" stroke-width="1.5"><path d="m10.6673 8.60016v2.80004c0 2.3333-.93332 3.2666-3.26665 3.2666h-2.8c-2.33333 0-3.26667-.9333-3.26667-3.2666v-2.80004c0-2.33333.93334-3.26666 3.26667-3.26666h2.8c2.33333 0 3.26665.93333 3.26665 3.26666z"/><path d="m14.6673 4.60016v2.8c0 2.33334-.9333 3.26664-3.2666 3.26664h-.7334v-2.06664c0-2.33333-.93332-3.26666-3.26665-3.26666h-2.06667v-.73334c0-2.33333.93334-3.26666 3.26667-3.26666h2.80005c2.3333 0 3.2666.93333 3.2666 3.26666z"/></g></svg>

<svg width="16" height="16" viewBox="0 0 16 16" fill="none" xmlns="http://www.w3.org/2000/svg">
<g id="copy">
<path id="Vector" d="M10.6673 8.60016V11.4002C10.6673 13.7335 9.73398 14.6668 7.40065 14.6668H4.60065C2.26732 14.6668 1.33398 13.7335 1.33398 11.4002V8.60016C1.33398 6.26683 2.26732 5.3335 4.60065 5.3335H7.40065C9.73398 5.3335 10.6673 6.26683 10.6673 8.60016Z" stroke="#B0B0B0" stroke-width="1.5" stroke-linecap="round" stroke-linejoin="round"/>
<path id="Vector_2" d="M14.6673 4.60016V7.40016C14.6673 9.7335 13.734 10.6668 11.4007 10.6668H10.6673V8.60016C10.6673 6.26683 9.73398 5.3335 7.40065 5.3335H5.33398V4.60016C5.33398 2.26683 6.26732 1.3335 8.60065 1.3335H11.4007C13.734 1.3335 14.6673 2.26683 14.6673 4.60016Z" stroke="#B0B0B0" stroke-width="1.5" stroke-linecap="round" stroke-linejoin="round"/>
</g>
</svg>
